img/svg/icon-font/art.svg

<svg width="22" height="22" viewBox="0 0 22 22" fill="none" xmlns="http://www.w3.org/2000/svg">
<g clip-path="url(#clip0)">
<path d="M21.9756 6.13843C21.7384 3.9212 20.4912 2.63502 19.1788 1.5755C17.3342 0.0862433 14.9899 0.00292691 14.891 9.09728e-05C14.5801 -0.00798715 14.2901 0.150267 14.1302 0.416114C13.9703 0.682005 13.966 1.01334 14.1191 1.28318C14.7607 2.41408 14.462 3.24479 14.0838 4.29658C13.7971 5.09386 13.4722 5.99754 13.612 7.05014C13.7634 8.18976 14.3257 9.19884 15.1951 9.89132C15.2142 9.90654 15.2339 9.9208 15.2532 9.93563V12.5236C14.082 12.5921 13.193 12.8337 12.5495 13.2568C11.7604 13.7757 11.3432 14.57 11.3432 15.5538C11.3432 16.2548 11.5541 16.8272 11.7401 17.3322C11.9191 17.818 12.0737 18.2377 12.0737 18.7764C12.0737 19.0112 12.0329 19.4556 11.7596 19.7939C11.499 20.1166 11.0554 20.2802 10.4409 20.2802C5.46842 20.2802 1.71866 16.2903 1.71866 10.9993C1.71866 5.88182 5.88203 1.71845 10.9995 1.71845C11.196 1.71845 11.3948 1.72468 11.5905 1.73693C12.0641 1.76632 12.4722 1.40659 12.5018 0.932943C12.5314 0.459298 12.1715 0.0512668 11.6979 0.0216183C11.4666 0.00713785 11.2316 -0.000209808 10.9995 -0.000209808C8.06145 -0.000209808 5.29925 1.14396 3.22171 3.22146C1.14417 5.29904 0 8.06124 0 10.9993C0 13.9618 1.03658 16.7154 2.91887 18.7526C4.85289 20.846 7.5243 21.9988 10.441 21.9988C11.8849 21.9988 12.6822 21.387 13.0967 20.8737C13.5453 20.3184 13.7924 19.5734 13.7924 18.7763C13.7924 17.9312 13.5588 17.2973 13.3529 16.7381C13.1903 16.2968 13.0619 15.9483 13.0619 15.5538C13.0619 15.1439 13.1871 14.8945 13.4938 14.6928C13.7607 14.5173 14.275 14.3143 15.2533 14.2458V19.3163C15.2253 19.9886 15.4632 20.6388 15.9244 21.1495C16.3856 21.66 17.0179 21.9605 17.705 21.9954C17.7498 21.9977 17.7944 21.9988 17.8389 21.9988C18.4774 21.9988 19.085 21.7656 19.5622 21.3346C20.0727 20.8735 20.3732 20.2412 20.4081 19.5541C20.4322 19.0801 20.0675 18.6763 19.5936 18.6522C19.1192 18.6281 18.7158 18.9928 18.6917 19.4667C18.6801 19.6953 18.5801 19.9057 18.4102 20.0591C18.2404 20.2125 18.0213 20.2909 17.7923 20.279C17.5637 20.2673 17.3533 20.1674 17.1999 19.9975C17.1077 19.8955 16.9555 19.6796 16.9708 19.3796L16.9719 19.3578V10.7118C17.2363 10.7635 17.507 10.7907 17.7812 10.7907C17.9331 10.7907 18.0861 10.7826 18.2393 10.7663C18.392 10.7501 18.5425 10.7256 18.6905 10.6936V15.4249C18.6905 15.8995 19.0753 16.2842 19.5499 16.2842C20.0245 16.2842 20.4092 15.8995 20.4092 15.4249V9.88054C20.6489 9.68959 20.8694 9.471 21.0666 9.22681C21.7724 8.3527 22.0952 7.25597 21.9756 6.13843ZM19.7294 8.14718C19.3122 8.66384 18.7186 8.98709 18.0579 9.05726C17.4029 9.12674 16.7665 8.94558 16.266 8.54692C15.7459 8.13266 15.4084 7.5207 15.3158 6.82379C15.231 6.18566 15.4489 5.57967 15.7012 4.87807C15.9977 4.0535 16.3453 3.08679 16.1633 1.95134C16.7652 2.12103 17.4797 2.41266 18.0992 2.91281C19.3175 3.89637 20.105 4.80963 20.2667 6.3214C20.3374 6.98204 20.1466 7.63044 19.7294 8.14718Z" fill="#4C51CB"/>
<path d="M9.62441 4.72647C9.62441 5.43721 10.2026 6.01549 10.9134 6.01549C11.6242 6.01549 12.2025 5.43726 12.2025 4.72647C12.2025 4.01572 11.6242 3.43745 10.9134 3.43745C10.2027 3.43749 9.62441 4.01572 9.62441 4.72647Z" fill="#4C51CB"/>
<path d="M7.27041 7.70115C7.77319 7.19833 7.77319 6.38017 7.27041 5.87739C6.76755 5.37461 5.94935 5.37457 5.44653 5.87739C4.94375 6.38021 4.94375 7.19838 5.44657 7.7012C5.69798 7.95261 6.02819 8.07829 6.35845 8.07829C6.68871 8.07829 7.01896 7.95256 7.27041 7.70115Z" fill="#4C51CB"/>
<path d="M3.43826 11.3003C3.43826 12.0111 4.0165 12.5894 4.72729 12.5894C5.43803 12.5894 6.01631 12.0111 6.01631 11.3003C6.01631 10.5895 5.43808 10.0113 4.72729 10.0113C4.0165 10.0113 3.43826 10.5896 3.43826 11.3003Z" fill="#4C51CB"/>
<path d="M6.48888 16.8437C6.83319 16.8437 7.15683 16.7096 7.40033 16.466C7.64379 16.2225 7.77785 15.8988 7.77785 15.5543C7.77785 15.2099 7.64379 14.8862 7.40029 14.6426C6.89764 14.1399 6.07995 14.14 5.57743 14.6426C5.33397 14.8861 5.19986 15.2099 5.19986 15.5543C5.19986 15.8988 5.33393 16.2225 5.57739 16.466C5.82085 16.7096 6.14453 16.8437 6.48888 16.8437Z" fill="#4C51CB"/>
</g>
<defs>
<clipPath id="clip0">
<rect width="22" height="22" fill="white"/>
</clipPath>
</defs>
</svg>

<svg width="22" height="22" fill="none" xmlns="http://www.w3.org/2000/svg"><g clip-path="url(#clip0)" fill="#4C51CB"><path d="M21.976 6.138c-.238-2.217-1.485-3.503-2.797-4.563C17.334.086 14.989.003 14.89 0a.86.86 0 00-.772 1.283c.642 1.131.343 1.962-.035 3.014-.287.797-.612 1.7-.472 2.753a4.332 4.332 0 001.583 2.841l.058.045v2.588c-1.171.068-2.06.31-2.704.733-.789.519-1.206 1.313-1.206 2.297 0 .7.211 1.273.397 1.778.18.486.334.906.334 1.444 0 .235-.041.68-.314 1.018-.261.323-.705.486-1.32.486-4.972 0-8.721-3.99-8.721-9.28 0-5.118 4.163-9.282 9.28-9.282.197 0 .396.007.591.019a.86.86 0 00.108-1.715 10.928 10.928 0 00-8.476 3.2A10.928 10.928 0 000 10.998c0 2.963 1.037 5.716 2.919 7.754 1.934 2.093 4.605 3.246 7.522 3.246 1.444 0 2.241-.612 2.656-1.125.448-.556.695-1.3.695-2.098 0-.845-.233-1.479-.44-2.038-.162-.441-.29-.79-.29-1.184 0-.41.125-.66.432-.861.267-.176.781-.379 1.76-.447v5.07c-.029.673.21 1.323.67 1.834a2.559 2.559 0 001.915.849c.638 0 1.246-.233 1.723-.664.51-.462.811-1.094.846-1.78a.86.86 0 00-1.716-.088.851.851 0 01-.282.592.85.85 0 01-.618.22.851.851 0 01-.592-.282.863.863 0 01-.23-.617l.002-.022v-8.646a4.215 4.215 0 001.718-.018v4.73a.86.86 0 001.72 0V9.882c.239-.191.46-.41.657-.654a4.176 4.176 0 00.909-3.089zm-2.247 2.01a2.47 2.47 0 01-1.671.91 2.441 2.441 0 01-1.792-.511 2.622 2.622 0 01-.95-1.723c-.085-.638.133-1.244.385-1.946.297-.825.644-1.791.462-2.927.602.17 1.317.462 1.936.962 1.218.983 2.006 1.897 2.168 3.408.07.661-.12 1.31-.538 1.826z"/><path d="M9.624 4.726a1.29 1.29 0 002.578 0 1.29 1.29 0 00-1.289-1.289 1.29 1.29 0 00-1.289 1.29zM7.27 7.701a1.291 1.291 0 000-1.824 1.291 1.291 0 00-1.823 0 1.291 1.291 0 00.911 2.201c.33 0 .661-.125.912-.377zM3.438 11.3a1.29 1.29 0 002.578 0 1.29 1.29 0 00-1.289-1.289 1.29 1.29 0 00-1.289 1.29zm3.051 5.544c.344 0 .668-.134.911-.378a1.28 1.28 0 00.378-.912 1.29 1.29 0 10-1.289 1.29z"/></g><defs><clipPath id="clip0"><path fill="#fff" d="M0 0h22v22H0z"/></clipPath></defs></svg>
